Newaita-dark/apps/24/mailspring.svg

<?xml version="1.0" encoding="UTF-8"?>
<svg xmlns="http://www.w3.org/2000/svg" xmlns:xlink="http://www.w3.org/1999/xlink" width="24pt" height="24pt" viewBox="0 0 24 24" version="1.1">
<defs>
<linearGradient id="linear0" gradientUnits="userSpaceOnUse" x1="254" y1="233.5" x2="254" y2="254.666672" gradientTransform="matrix(0.0468795,0,0,0.0468795,-0.0000028613,8.094524)">
<stop offset="0" style="stop-color:rgb(0%,0%,0%);stop-opacity:0.27451;"/>
<stop offset="1" style="stop-color:rgb(0%,0%,0%);stop-opacity:0;"/>
</linearGradient>
<radialGradient id="radial0" gradientUnits="userSpaceOnUse" cx="450.908936" cy="189.579361" fx="450.908936" fy="189.579361" r="21.166656" gradientTransform="matrix(0.000000130628,-0.0585994,-0.105479,-0.0000000761539,39.842197,45.711934)">
<stop offset="0" style="stop-color:rgb(0%,0%,0%);stop-opacity:0.313725;"/>
<stop offset="0.222222" style="stop-color:rgb(0%,0%,0%);stop-opacity:0.27451;"/>
<stop offset="1" style="stop-color:rgb(0%,0%,0%);stop-opacity:0;"/>
</radialGradient>
<radialGradient id="radial1" gradientUnits="userSpaceOnUse" cx="450.908936" cy="189.579361" fx="450.908936" fy="189.579361" r="21.166656" gradientTransform="matrix(-0.000000130628,0.0585994,0.105479,0.0000000761539,-15.90339,-7.630174)">
<stop offset="0" style="stop-color:rgb(0%,0%,0%);stop-opacity:0.313725;"/>
<stop offset="0.222222" style="stop-color:rgb(0%,0%,0%);stop-opacity:0.27451;"/>
<stop offset="1" style="stop-color:rgb(0%,0%,0%);stop-opacity:0;"/>
</radialGradient>
<radialGradient id="radial2" gradientUnits="userSpaceOnUse" cx="450.908936" cy="189.579361" fx="450.908936" fy="189.579361" r="21.166656" gradientTransform="matrix(-0.000000130628,-0.0585994,0.105479,-0.0000000761539,-15.90339,45.711934)">
<stop offset="0" style="stop-color:rgb(0%,0%,0%);stop-opacity:0.313725;"/>
<stop offset="0.222222" style="stop-color:rgb(0%,0%,0%);stop-opacity:0.27451;"/>
<stop offset="1" style="stop-color:rgb(0%,0%,0%);stop-opacity:0;"/>
</radialGradient>
<radialGradient id="radial3" gradientUnits="userSpaceOnUse" cx="450.908936" cy="189.579361" fx="450.908936" fy="189.579361" r="21.166656" gradientTransform="matrix(0.000000130628,0.0585994,-0.105479,0.0000000761539,39.842196,-7.630174)">
<stop offset="0" style="stop-color:rgb(0%,0%,0%);stop-opacity:0.313725;"/>
<stop offset="0.222222" style="stop-color:rgb(0%,0%,0%);stop-opacity:0.27451;"/>
<stop offset="1" style="stop-color:rgb(0%,0%,0%);stop-opacity:0;"/>
</radialGradient>
<linearGradient id="linear1" gradientUnits="userSpaceOnUse" x1="960" y1="1535.118164" x2="960" y2="335.118103" gradientTransform="matrix(0.0124035,0,0,0.0124035,0,0)">
<stop offset="0" style="stop-color:rgb(14.901961%,65.098039%,60.392157%);stop-opacity:1;"/>
<stop offset="1" style="stop-color:rgb(30.196078%,71.372549%,67.45098%);stop-opacity:1;"/>
</linearGradient>
</defs>
<g id="surface1">
<path style=" stroke:none;fill-rule:nonzero;fill:url(#linear0);" d="M 3.84375 19.039062 L 20.09375 19.039062 L 20.09375 20.03125 L 3.84375 20.03125 Z M 3.84375 19.039062 "/>
<path style=" stroke:none;fill-rule:nonzero;fill:url(#radial0);" d="M 20.09375 19.039062 L 22.078125 19.039062 L 22.078125 18.046875 L 20.09375 18.046875 Z M 20.09375 19.039062 "/>
<path style=" stroke:none;fill-rule:nonzero;fill:url(#radial1);" d="M 3.84375 19.039062 L 1.859375 19.039062 L 1.859375 20.03125 L 3.84375 20.03125 Z M 3.84375 19.039062 "/>
<path style=" stroke:none;fill-rule:nonzero;fill:url(#radial2);" d="M 3.84375 19.039062 L 1.859375 19.039062 L 1.859375 18.046875 L 3.84375 18.046875 Z M 3.84375 19.039062 "/>
<path style=" stroke:none;fill-rule:nonzero;fill:url(#radial3);" d="M 20.09375 19.039062 L 22.078125 19.039062 L 22.078125 20.03125 L 20.09375 20.03125 Z M 20.09375 19.039062 "/>
<path style=" stroke:none;fill-rule:nonzero;fill:url(#linear1);" d="M 2.730469 4.15625 C 2.316406 4.15625 1.984375 4.488281 1.984375 4.902344 L 1.984375 5.644531 L 11.144531 11.597656 C 11.660156 11.972656 12.15625 11.972656 12.671875 11.597656 L 21.832031 5.644531 L 21.832031 4.902344 C 21.832031 4.488281 21.5 4.15625 21.085938 4.15625 Z M 1.984375 6.390625 L 1.984375 18.296875 C 1.984375 18.707031 2.316406 19.039062 2.730469 19.039062 L 21.085938 19.039062 C 21.5 19.039062 21.832031 18.707031 21.832031 18.296875 L 21.832031 6.390625 L 12.671875 12.34375 C 12.15625 12.714844 11.660156 12.714844 11.144531 12.34375 Z M 1.984375 6.390625 "/>
<path style=" stroke:none;fill-rule:nonzero;fill:rgb(100%,100%,100%);fill-opacity:0.392157;" d="M 2.730469 4.15625 C 2.316406 4.15625 1.984375 4.488281 1.984375 4.902344 L 1.984375 5.148438 C 1.984375 4.738281 2.316406 4.40625 2.730469 4.40625 L 21.085938 4.40625 C 21.5 4.40625 21.832031 4.738281 21.832031 5.148438 L 21.832031 4.902344 C 21.832031 4.488281 21.5 4.15625 21.085938 4.15625 Z M 1.984375 6.390625 L 1.984375 6.636719 L 11.144531 12.589844 C 11.660156 12.964844 12.15625 12.964844 12.671875 12.589844 L 21.832031 6.636719 L 21.832031 6.390625 L 12.671875 12.34375 C 12.15625 12.714844 11.660156 12.714844 11.144531 12.34375 Z M 1.984375 6.390625 "/>
<path style=" stroke:none;fill-rule:nonzero;fill:rgb(0%,0%,0%);fill-opacity:0.235294;" d="M 21.085938 19.039062 C 21.5 19.039062 21.832031 18.707031 21.832031 18.296875 L 21.832031 18.046875 C 21.832031 18.460938 21.5 18.792969 21.085938 18.792969 L 2.730469 18.792969 C 2.316406 18.792969 1.984375 18.460938 1.984375 18.046875 L 1.984375 18.296875 C 1.984375 18.707031 2.316406 19.039062 2.730469 19.039062 Z M 21.085938 19.039062 "/>
<path style=" stroke:none;fill-rule:nonzero;fill:rgb(12.941177%,12.941177%,12.941177%);fill-opacity:1;" d="M 2.730469 4.085938 C 2.277344 4.085938 1.914062 4.449219 1.914062 4.902344 L 1.914062 5.683594 L 11.105469 11.65625 L 11.101562 11.65625 C 11.371094 11.847656 11.636719 11.949219 11.90625 11.949219 C 12.175781 11.949219 12.445312 11.847656 12.710938 11.65625 L 21.902344 5.683594 L 21.902344 4.902344 C 21.902344 4.449219 21.535156 4.085938 21.085938 4.085938 Z M 2.730469 4.226562 L 21.085938 4.226562 C 21.460938 4.226562 21.761719 4.527344 21.761719 4.902344 L 21.761719 5.605469 L 12.632812 11.539062 L 12.628906 11.542969 C 12.378906 11.722656 12.144531 11.808594 11.90625 11.808594 C 11.671875 11.808594 11.433594 11.722656 11.183594 11.542969 L 11.183594 11.539062 L 2.054688 5.605469 L 2.054688 4.902344 C 2.054688 4.527344 2.355469 4.226562 2.730469 4.226562 Z M 1.914062 6.257812 L 1.914062 18.296875 C 1.914062 18.746094 2.277344 19.109375 2.730469 19.109375 L 21.085938 19.109375 C 21.535156 19.109375 21.902344 18.746094 21.902344 18.296875 L 21.902344 6.257812 L 12.632812 12.285156 L 12.628906 12.285156 C 12.378906 12.464844 12.144531 12.550781 11.90625 12.550781 C 11.671875 12.550781 11.433594 12.464844 11.183594 12.285156 Z M 2.054688 6.519531 L 11.105469 12.402344 L 11.101562 12.398438 C 11.371094 12.59375 11.636719 12.691406 11.90625 12.691406 C 12.175781 12.691406 12.445312 12.59375 12.710938 12.398438 L 12.710938 12.402344 L 21.761719 6.519531 L 21.761719 18.296875 C 21.761719 18.671875 21.460938 18.96875 21.085938 18.96875 L 2.730469 18.96875 C 2.355469 18.96875 2.054688 18.671875 2.054688 18.296875 Z M 2.054688 6.519531 "/>
</g>
</svg>

<svg xmlns="http://www.w3.org/2000/svg" width="32" height="32" viewBox="0 0 24 24"><defs><linearGradient id="a" gradientUnits="userSpaceOnUse" x1="254" y1="233.5" x2="254" y2="254.667" gradientTransform="matrix(.04688 0 0 .04688 0 8.095)"><stop offset="0" stop-opacity=".275"/><stop offset="1" stop-opacity="0"/></linearGradient><radialGradient id="b" gradientUnits="userSpaceOnUse" cx="450.909" cy="189.579" fx="450.909" fy="189.579" r="21.167" gradientTransform="matrix(0 -.0586 -.10548 0 39.842 45.712)"><stop offset="0" stop-opacity=".314"/><stop offset=".222" stop-opacity=".275"/><stop offset="1" stop-opacity="0"/></radialGradient><radialGradient id="c" gradientUnits="userSpaceOnUse" cx="450.909" cy="189.579" fx="450.909" fy="189.579" r="21.167" gradientTransform="matrix(0 .0586 .10548 0 -15.903 -7.63)"><stop offset="0" stop-opacity=".314"/><stop offset=".222" stop-opacity=".275"/><stop offset="1" stop-opacity="0"/></radialGradient><radialGradient id="d" gradientUnits="userSpaceOnUse" cx="450.909" cy="189.579" fx="450.909" fy="189.579" r="21.167" gradientTransform="matrix(0 -.0586 .10548 0 -15.903 45.712)"><stop offset="0" stop-opacity=".314"/><stop offset=".222" stop-opacity=".275"/><stop offset="1" stop-opacity="0"/></radialGradient><radialGradient id="e" gradientUnits="userSpaceOnUse" cx="450.909" cy="189.579" fx="450.909" fy="189.579" r="21.167" gradientTransform="matrix(0 .0586 -.10548 0 39.842 -7.63)"><stop offset="0" stop-opacity=".314"/><stop offset=".222" stop-opacity=".275"/><stop offset="1" stop-opacity="0"/></radialGradient><linearGradient id="f" gradientUnits="userSpaceOnUse" x1="960" y1="1535.118" x2="960" y2="335.118" gradientTransform="scale(.0124)"><stop offset="0" stop-color="#26a69a"/><stop offset="1" stop-color="#4db6ac"/></linearGradient></defs><path d="M3.844 19.04h16.25v.991H3.844zm0 0" fill="url(#a)"/><path d="M20.094 19.04h1.984v-.993h-1.984zm0 0" fill="url(#b)"/><path d="M3.844 19.04H1.859v.991h1.985zm0 0" fill="url(#c)"/><path d="M3.844 19.04H1.859v-.993h1.985zm0 0" fill="url(#d)"/><path d="M20.094 19.04h1.984v.991h-1.984zm0 0" fill="url(#e)"/><path d="M2.73 4.156a.744.744 0 0 0-.746.746v.743l9.16 5.953c.516.375 1.012.375 1.528 0l9.16-5.953v-.743a.744.744 0 0 0-.746-.746zm-.746 2.235v11.906c0 .41.332.742.746.742h18.356a.743.743 0 0 0 .746-.742V6.39l-9.16 5.953c-.516.37-1.012.37-1.527 0zm0 0" fill="url(#f)"/><path d="M2.73 4.156a.744.744 0 0 0-.746.746v.246c0-.41.332-.742.746-.742h18.356c.414 0 .746.332.746.742v-.246a.744.744 0 0 0-.746-.746zm-.746 2.235v.246l9.16 5.953c.516.375 1.012.375 1.528 0l9.16-5.953V6.39l-9.16 5.953c-.516.37-1.012.37-1.527 0zm0 0" fill="#fff" fill-opacity=".392"/><path d="M21.086 19.04a.743.743 0 0 0 .746-.743v-.25a.744.744 0 0 1-.746.746H2.73a.744.744 0 0 1-.746-.746v.25c0 .41.332.742.746.742zm0 0" fill-opacity=".235"/><path d="M2.73 4.086a.814.814 0 0 0-.816.816v.782l9.191 5.972h-.003c.27.192.535.293.804.293.27 0 .54-.101.805-.293l9.191-5.972v-.782a.816.816 0 0 0-.816-.816zm0 .14h18.356c.375 0 .676.301.676.676v.703l-9.13 5.934-.003.004c-.25.18-.484.266-.723.266-.234 0-.472-.086-.722-.266v-.004l-9.13-5.934v-.703c0-.375.301-.675.676-.675zm-.816 2.032v12.039c0 .45.363.812.816.812h18.356c.45 0 .816-.363.816-.812V6.257l-9.27 6.028h-.003c-.25.18-.484.266-.723.266-.234 0-.472-.086-.722-.266zm.14.262l9.051 5.882-.003-.004c.27.196.535.293.804.293.27 0 .54-.097.805-.293v.004l9.05-5.882v11.777a.67.67 0 0 1-.675.672H2.73a.67.67 0 0 1-.675-.672zm0 0" fill="#212121"/></svg>
